pix_core/f/spreadsheet.svg

<svg fill="none" preserveAspectRatio="xMinYMid meet" viewBox="0 0 24 24" xmlns="http://www.w3.org/2000/svg"><g fill="#fff"><path clip-rule="evenodd" d="m12.5677 12.5757c-.2387 0-.4602.0293-.6639.089-.2011.0595-.3783.1455-.5296.2588-.1516.1118-.271.2477-.3564.4078-.0867.1603-.1292.338-.1292.5309 0 .1973.0399.3752.1231.5306l.0006.001c.0828.1508.195.2827.3354.3959l.0013.001c.1397.1089.2993.2038.4775.2848.1774.0797.3651.1516.5618.2151.1715.054.3086.1052.4127.1535.1046.0486.1804.0957.2313.14l.0014.0012c.0494.0414.0781.0836.0927.1258l.0013.0036c.0183.0472.0285.1031.0285.169 0 .0777-.0196.1447-.0575.2038l-.001.0016c-.0339.0552-.09.103-.1748.1396-.0807.0355-.1907.056-.3347.056-.1182 0-.2254-.012-.3221-.0353-.0918-.0225-.1689-.0582-.233-.1057-.0597-.0457-.1071-.1061-.1417-.1836-.0338-.0756-.0528-.1731-.0528-.2961 0-.0553-.0448-.1-.1-.1h-.8819c-.0552 0-.1.0447-.1.1 0 .2542.0528.4799.1624.6733.1072.189.2509.3452.4296.4672.1774.1196.3747.2092.5897.2686.2134.0569.4301.0854.6498.0854.2417 0 .4629-.0272.6625-.0828.1995-.0555.3741-.1375.5221-.2475.1489-.1106.264-.2468.3435-.4081.08-.162.1188-.3435.1188-.5423 0-.1873-.0323-.3585-.0992-.5117-.0665-.1523-.1649-.2875-.2936-.4057-.1274-.117-.2841-.2206-.4685-.3118-.1817-.0908-.391-.1718-.6274-.2433-.1361-.0422-.2548-.085-.3563-.1283-.1009-.0429-.1832-.0876-.2483-.1333-.0639-.0449-.108-.0902-.1364-.1347-.0249-.0419-.0379-.0891-.0379-.1439 0-.0769.02-.1433.0594-.2023l.0006-.001c.0383-.0589.0978-.109.1851-.1476l.0015-.0007c.0845-.039.1961-.0611.3389-.0611.1474 0 .2616.026.3466.0708.0892.0463.1517.1077.192.1837l.0012.0022c.0431.0765.0663.1685.0663.2791 0 .0552.0448.1.1.1h.873c.0553 0 .1-.0448.1-.1 0-.272-.0703-.517-.2127-.7318-.1399-.2139-.3361-.3805-.585-.5008-.2504-.1211-.5403-.1799-.8667-.1799zm-1.7079 3.1883c-.002-.0327-.003-.066-.003-.0999h.0999-.0999l-.0001.0999z" fill-rule="evenodd"/><path d="m3.09365 12.6343c-.03586 0-.06897.0192-.08678.0503-.01782.0311-.01761.0694.00055.1003l1.21232 2.0644-1.24434 2.0996c-.01832.0309-.01865.0693-.00086.1005s.05096.0505.08689.0505h1.01953c.03662 0 .07031-.02.08783-.0522l.73834-1.3562.73834 1.3562c.01751.0322.05121.0522.08783.0522h1.01367c.03591 0 .06907-.0193.08686-.0504.0178-.0312.0175-.0696-.00078-.1005l-1.24153-2.0997 1.20951-2.0645c.01812-.0309.0183-.0692.00048-.1002-.01782-.0311-.05092-.0503-.08676-.0503h-1.00489c-.03676 0-.07056.0201-.08801.0525l-.71472 1.3251-.71472-1.3251c-.01745-.0324-.05125-.0525-.08802-.0525z"/><path d="m7.48936 12.6343c-.05523 0-.1.0447-.1.1v4.2656c0 .0552.04477.1.1.1h2.74214c.0553 0 .1-.0448.1-.1v-.6855c0-.0553-.0447-.1-.1-.1h-1.76324v-3.4801c0-.0553-.04477-.1-.1-.1z"/><path clip-rule="evenodd" d="m7 2.5c-1.38071 0-2.5 1.11929-2.5 2.5v6c0 .2761.22386.5.5.5s.5-.2239.5-.5v-6c0-.82843.67157-1.5 1.5-1.5h6c.2761 0 .5.22386.5.5v3c0 .82843.6716 1.5 1.5 1.5h3c.2761 0 .5.22386.5.5v10c0 .8284-.6716 1.5-1.5 1.5h-10c-.82843 0-1.5-.6716-1.5-1.5 0-.2761-.22386-.5-.5-.5s-.5.2239-.5.5c0 1.3807 1.11929 2.5 2.5 2.5h10c1.3807 0 2.5-1.1193 2.5-2.5v-10.17157c0-.66304-.2634-1.29893-.7322-1.76777l-3.8285-3.82843c-.4688-.46884-1.1047-.73223-1.7677-.73223zm7.5 1.70711v2.79289c0 .27614.2239.5.5.5h2.7929z" fill-rule="evenodd"/></g></svg>

<svg viewBox="0 0 24 24" fill="none" xmlns="http://www.w3.org/2000/svg" preserveAspectRatio="xMinYMid meet">
<path fill-rule="evenodd" clip-rule="evenodd" d="M12.5677 12.5757C12.329 12.5757 12.1075 12.605 11.9038 12.6647C11.7027 12.7242 11.5255 12.8102 11.3742 12.9235C11.2226 13.0353 11.1032 13.1712 11.0178 13.3313C10.9311 13.4916 10.8886 13.6693 10.8886 13.8622C10.8886 14.0595 10.9285 14.2374 11.0117 14.3928L11.0123 14.3938C11.0951 14.5446 11.2073 14.6765 11.3477 14.7897L11.349 14.7907C11.4887 14.8996 11.6483 14.9945 11.8265 15.0755C12.0039 15.1552 12.1916 15.2271 12.3883 15.2906C12.5598 15.3446 12.6969 15.3958 12.801 15.4441C12.9056 15.4927 12.9814 15.5398 13.0323 15.5841L13.0337 15.5853C13.0831 15.6267 13.1118 15.6689 13.1264 15.7111L13.1277 15.7147C13.146 15.7619 13.1562 15.8178 13.1562 15.8837C13.1562 15.9614 13.1366 16.0284 13.0987 16.0875L13.0977 16.0891C13.0638 16.1443 13.0077 16.1921 12.9229 16.2287C12.8422 16.2642 12.7322 16.2847 12.5882 16.2847C12.47 16.2847 12.3628 16.2727 12.2661 16.2494C12.1743 16.2269 12.0972 16.1912 12.0331 16.1437C11.9734 16.098 11.926 16.0376 11.8914 15.9601C11.8576 15.8845 11.8386 15.787 11.8386 15.664C11.8386 15.6087 11.7938 15.564 11.7386 15.564H10.8567C10.8015 15.564 10.7567 15.6087 10.7567 15.664C10.7567 15.9182 10.8095 16.1439 10.9191 16.3373C11.0263 16.5263 11.17 16.6825 11.3487 16.8045C11.5261 16.9241 11.7234 17.0137 11.9384 17.0731C12.1518 17.13 12.3685 17.1585 12.5882 17.1585C12.8299 17.1585 13.0511 17.1313 13.2507 17.0757C13.4502 17.0202 13.6248 16.9382 13.7728 16.8282C13.9217 16.7176 14.0368 16.5814 14.1163 16.4201C14.1963 16.2581 14.2351 16.0766 14.2351 15.8778C14.2351 15.6905 14.2028 15.5193 14.1359 15.3661C14.0694 15.2138 13.971 15.0786 13.8423 14.9604C13.7149 14.8434 13.5582 14.7398 13.3738 14.6486C13.1921 14.5578 12.9828 14.4768 12.7464 14.4053C12.6103 14.3631 12.4916 14.3203 12.3901 14.277C12.2892 14.2341 12.2069 14.1894 12.1418 14.1437C12.0779 14.0988 12.0338 14.0535 12.0054 14.009C11.9805 13.9671 11.9675 13.9199 11.9675 13.8651C11.9675 13.7882 11.9875 13.7218 12.0269 13.6628L12.0275 13.6618C12.0658 13.6029 12.1253 13.5528 12.2126 13.5142L12.2141 13.5135C12.2986 13.4745 12.4102 13.4524 12.553 13.4524C12.7004 13.4524 12.8146 13.4784 12.8996 13.5232C12.9888 13.5695 13.0513 13.6309 13.0916 13.7069L13.0928 13.7091C13.1359 13.7856 13.1591 13.8776 13.1591 13.9882C13.1591 14.0434 13.2039 14.0882 13.2591 14.0882H14.1321C14.1874 14.0882 14.2321 14.0434 14.2321 13.9882C14.2321 13.7162 14.1618 13.4712 14.0194 13.2564C13.8795 13.0425 13.6833 12.8759 13.4344 12.7556C13.184 12.6345 12.8941 12.5757 12.5677 12.5757ZM10.8598 15.764C10.8578 15.7313 10.8568 15.698 10.8568 15.6641H10.9567H10.8568L10.8567 15.764H10.8598Z" fill="#fff"/>
<path  d="M3.09365 12.6343C3.05779 12.6343 3.02468 12.6535 3.00687 12.6846C2.98905 12.7157 2.98926 12.754 3.00742 12.7849L4.21974 14.8493L2.9754 16.9489C2.95708 16.9798 2.95675 17.0182 2.97454 17.0494C2.99233 17.0806 3.0255 17.0999 3.06143 17.0999H4.08096C4.11758 17.0999 4.15127 17.0799 4.16879 17.0477L4.90713 15.6915L5.64547 17.0477C5.66298 17.0799 5.69668 17.0999 5.7333 17.0999H6.74697C6.78288 17.0999 6.81604 17.0806 6.83383 17.0495C6.85163 17.0183 6.85133 16.9799 6.83305 16.949L5.59152 14.8493L6.80103 12.7848C6.81915 12.7539 6.81933 12.7156 6.80151 12.6846C6.78369 12.6535 6.75059 12.6343 6.71475 12.6343H5.70986C5.6731 12.6343 5.6393 12.6544 5.62185 12.6868L4.90713 14.0119L4.19241 12.6868C4.17496 12.6544 4.14116 12.6343 4.10439 12.6343H3.09365Z" fill="#fff"/>
<path  d="M7.48936 12.6343C7.43413 12.6343 7.38936 12.679 7.38936 12.7343V16.9999C7.38936 17.0551 7.43413 17.0999 7.48936 17.0999H10.2315C10.2868 17.0999 10.3315 17.0551 10.3315 16.9999V16.3144C10.3315 16.2591 10.2868 16.2144 10.2315 16.2144H8.46826V12.7343C8.46826 12.679 8.42349 12.6343 8.36826 12.6343H7.48936Z" fill="#fff"/>
<path fill-rule="evenodd" clip-rule="evenodd" d="M7 2.5C5.61929 2.5 4.5 3.61929 4.5 5V11C4.5 11.2761 4.72386 11.5 5 11.5C5.27614 11.5 5.5 11.2761 5.5 11V5C5.5 4.17157 6.17157 3.5 7 3.5H13C13.2761 3.5 13.5 3.72386 13.5 4V7C13.5 7.82843 14.1716 8.5 15 8.5H18C18.2761 8.5 18.5 8.72386 18.5 9V19C18.5 19.8284 17.8284 20.5 17 20.5H7C6.17157 20.5 5.5 19.8284 5.5 19C5.5 18.7239 5.27614 18.5 5 18.5C4.72386 18.5 4.5 18.7239 4.5 19C4.5 20.3807 5.61929 21.5 7 21.5H17C18.3807 21.5 19.5 20.3807 19.5 19V8.82843C19.5 8.16539 19.2366 7.5295 18.7678 7.06066L14.9393 3.23223C14.4705 2.76339 13.8346 2.5 13.1716 2.5H7ZM14.5 4.20711V7C14.5 7.27614 14.7239 7.5 15 7.5H17.7929L14.5 4.20711Z" fill="#fff"/>
</svg>
